X: 34
T:Pretty Maggie Morrisey
R:hornpipe
C:Trad
M:4/4
L:1/8
K:G
Bc |: dBGB cAFD | (3GFG AF GABc | dgfg efge | dBGB A2 Bc |
   | dBGB cAGA | (3GFG AF GABc | dgfg ecAF | G2B2G2 Bc:|
   |: dgfg egfg | dgfg egfg | dgfg efge | dBGB A2 Bc |
   | dBGB cAFA | (3GFG AF GABc | dgfg ecAF | G2B2G2 Bc:|
